X:3
T:Sliabh Geal gCua na Feile
R:slow air
Z:id:hn-slowair-3
M:6/8
L:1/16
Q:3/8=45
K:D
f>g | a4 {ba}g2 {fg}f3 gaf | g4 {ag}fe f4 {gf}e2 | d4 c2 A4 B2 | =c4 {dc}Bc d3 ff{gf}e |
d4 c2 A4 {BA}GF | G6 {AG}F4 G2 |1 A4 d2 d4 e2 | f6- f4 :|2 A4 d2 d4 c2 | d6- d4 ||
A2 | d4 e2 f4 g2 | a2 a4- a4 {ba}g2 | a4 b2 {ab}a4 {ba}gf | g2 a4- a4 ge |
f2 g4 {ef}e4 c2 | {e}d2 e4- e4 c2 | {e}d4 {ed}c2 A4 A2 | A6- A4 ||
f>g | a4 {ba}g2 {fg}f3 gaf | g4 {ag}fe f4 {gf}e2 | d4 c2 A4 B2 | =c4 {dc}Bc d3 ff{gf}e |
d4 c2 A4 {BA}GF | G6 {AG}F4 G2 | A4 d2 d4 {ed}c2 | d6- d4 ||

